X:1
T:Title
%%score { ( 1 3 ) | ( 2 4 ) }
L:1/8
M:3/4
K:C
V:1 treble nm="Grand Piano"
V:3 treble 
V:2 bass 
V:4 bass 
V:1
 z2 z2[Q:1/4=100] [Ec]>[Fc] | [Ec]3 [CEG] [CE]>[K:bass][F,B,D] | [E,C]4[K:treble] [CFA]>[CFA] | %3
 [CFA]3 [CFA] [CEG]>[G,DF] |[M:2/4] [G,CE]4 |[M:1/4] [G,CE]>[G,CE] | %6
[M:3/4] [A,C^F]3[K:bass] [^F,CD] [G,CE]>[K:treble][A,CF] | [B,DG]4 [B,DG]>[CDA] | %8
 [DGB]3 [B,G] [C^FA]>[A,DF] |[M:5/8] [B,G]-[B,G]- [B,G]3 |[M:12/8] z3 e6- e z z | %11
 .[FAd]2 [CFA] z3 C3 .E3 | z3 B6- B2 z | z3 c6- c2 z | z3 e6- e z z | .[FAd]2 [CFA] z3 C3 .E3 | %16
 EG[Ec] B3 G3 e3 |[M:9/8] d3 c3- [Fc-]2 [Fc-] | [Ec]3 z3 z3 |] %19
V:2
 z2 z2 [C,G,]>[C,A,] | [C,G,]3 C, G,>G,, | C,4 F,,A,,/C,/ | F,3 F, C,>C, |[M:2/4] C,4 | %5
[M:1/4] C,>C, |[M:3/4] A,,3 A,, D,>E, | G,4 G,>G, | D,3 D, D,>D, |[M:5/8] z2 F3 | %10
[M:12/8][K:treble] z3[K:bass] G6- G z z | z[K:treble] cA, C3[K:bass] G,3 .[C,G,C]3 | z3 F6- F2 z | %13
 F2 F E2[K:bass] [C,G,] [F,A,]2 [F,A,] .[C,G,]3 | z3[K:treble][K:bass] G6- G z z | %15
 z[K:treble] cA, C3[K:bass] G,3 .[C,G,C]3 | [G,C][CE][C,C][K:treble] [G,DF]3 [G,B,]3 [G,CG]3 | %17
[M:9/8] [G,B,F]3[K:bass] G,3 A,2 A, | G,3 z3 z3 |] %19
V:3
 x6 | x11/2[K:bass] x/ | x4[K:treble] x2 | x6 |[M:2/4] x4 |[M:1/4] x2 | %6
[M:3/4] x3[K:bass] x5/2[K:treble] x/ | x6 | x6 |[M:5/8] D2 z z2 |[M:12/8] Gcd z3 CCC C[Fd][CEc] | %11
 z3 [EG]6 z3 | EGc z3 D2 D .D3 | GBd z2 E F2 F .E3 | Gcd z3 CCC C[Fd][CEc] | z3 [EG]6 z3 | x12 | %17
[M:9/8] z3 E3 z3 | x9 |] %19
V:4
 x6 | x6 | x6 | x6 |[M:2/4] x4 |[M:1/4] x2 |[M:3/4] x6 | x6 | x6 |[M:5/8] G,,-G,,- G,,3 | %10
[M:12/8][K:treble] EEF[K:bass] z3 E,E,E, C,[D,B,]E, | .F,3[K:treble] z3[K:bass] z6 | %12
 CEE z3 G,,B,,D, .G,3 | x5[K:bass] x7 | E[K:treble]EF[K:bass] z3 C,C,C, C,[D,B,]E, | %15
 .F,3[K:treble] z3[K:bass] z6 | .C,3[K:treble] z3 z6 |[M:9/8] z3[K:bass] C,6- | C,3 z3 z3 |] %19

